X:193
T: ICH MOECHTE WOHL DER KAISER SEIN
N: B0678
O: Europa, Mitteleuropa, Deutschland
R: Scherz - Lied
M: 4/4
L: 1/8
K: G
D | G3DB3G | d3BG3
B | D4F4 | G4z
EFG | A2A2A2A2 | F2D2z
EFG | A2A2A2A2 | F2D
DD2D2 | F2D2F2D2 | F2z
FF2F2 | A2F2A2F2 | A2z
AA2A2 | c2A2c2A2 | c6
D2 | G3DB3G | d3BG2z
B | D4F4 | G4z3

@@@ Tune index: 2411
